src/bright/hiso font bright_2710.svg

<svg xmlns="http://www.w3.org/2000/svg" width="72" height="126" viewBox="0 0 72 126"><path fill="#000101" d="M0 13.5v63.37l27 45.13 27-45.13v-63.37l-27-13.5-27 13.5zm51 3.17v12.97l-22.5 11.25v-12.97l22.5-11.25zm0 19.68v38.661l-22.5 11.25v-38.661l22.5-11.25zm-14.738 64.33l-7.762 3.881v-14.94l20.51-10.261-12.748 21.32zm-31.272-21.32l20.51 10.261v14.939l-7.759-3.881-12.751-21.319zm-1.99-43.01v-6.71l22.5 11.25v6.71l-22.5-11.25z"/></svg>

<svg xmlns="http://www.w3.org/2000/svg" width="72" height="126"><path fill="#000101" d="M0 13.5v63.37L27 122l27-45.13V13.5L27 0 0 13.5zm51 3.17v12.97L28.5 40.89V27.92L51 16.67zm0 19.68v38.661l-22.5 11.25V47.6L51 36.35zm-14.738 64.33l-7.762 3.881v-14.94L49.01 79.36l-12.748 21.32zM4.99 79.36L25.5 89.621v14.939l-7.759-3.881L4.99 79.36zM3 36.35v-6.71l22.5 11.25v6.71L3 36.35z"/></svg>
